X:104
T:Fred Pigeon's No. 1
R:polka 32
Z:P J Headford
M:2/4
L:1/16
Q:1/4=180
K:G
|:Bc|d2G2 G2AB|c2E2 E2G2|FGAB cBAc|e2d2 dcBc|
d2G2 G2AB|c2E2 E2G2|FGAB cAF2|A2G2 G2:|
|:ef|g2g2 g2ag|f2e2 e3B|c2c2 cBAc|e2d2 d2ef|
g2g2 g2ag|f2e2 e3B|FGAG cAF2|A2G2 G2:|]

